src/img/notificación.svg

<svg width="57" height="57" viewBox="0 0 57 57" fill="none" xmlns="http://www.w3.org/2000/svg">
<path d="M42.4863 36.9863C41.5293 36.9863 40.709 36.6445 40.0254 35.9609C39.3418 35.2773 39 34.457 39 33.5V26.4863C39 25.2285 38.7949 24.0391 38.3848 22.918C37.9746 21.7969 37.4004 20.7852 36.6621 19.8828C35.9238 18.9805 35.0488 18.2148 34.0371 17.5859C33.0527 16.957 31.9727 16.5059 30.7969 16.2324C30.7969 16.2324 30.7832 16.2324 30.7559 16.2324C30.7012 16.2324 30.6465 16.2324 30.5918 16.2324C30.5645 16.2051 30.5234 16.1914 30.4688 16.1914C30.4688 16.1914 30.4551 16.1914 30.4277 16.1914C30.4004 16.1641 30.373 16.1504 30.3457 16.1504C30.3184 16.1504 30.3047 16.1504 30.3047 16.1504C30.2773 16.1504 30.25 16.1504 30.2227 16.1504C30.168 16.123 30.127 16.1094 30.0996 16.1094C30.0723 16.1094 30.0449 16.1094 30.0176 16.1094C29.9902 16.1094 29.9629 16.1094 29.9355 16.1094C29.9355 16.1094 29.9219 16.0957 29.8945 16.0684C29.8672 16.0684 29.8398 16.0684 29.8125 16.0684C29.8125 16.0684 29.7988 16.0684 29.7715 16.0684C29.7441 16.0684 29.7168 16.0684 29.6895 16.0684C29.6895 16.0684 29.6758 16.0684 29.6484 16.0684C29.6211 16.0684 29.5938 16.0684 29.5664 16.0684C29.5664 16.041 29.5527 16.0273 29.5254 16.0273C29.498 16.0273 29.4707 16.0273 29.4434 16.0273C29.416 16.0273 29.3887 16.0273 29.3613 16.0273C29.334 16.0273 29.3066 16.0273 29.2793 16.0273C29.2246 16.0273 29.1836 16.0273 29.1562 16.0273C29.1289 16.0273 29.1016 16.0273 29.0742 16.0273C29.0469 16.0273 29.0332 16.0273 29.0332 16.0273C28.9785 16 28.9375 15.9863 28.9102 15.9863C28.8828 15.9863 28.8418 15.9863 28.7871 15.9863C28.7871 15.9863 28.7734 15.9863 28.7461 15.9863C28.6914 15.9863 28.6367 15.9863 28.582 15.9863C28.5547 15.9863 28.5273 15.9863 28.5 15.9863C28.4453 15.9863 28.3906 15.9863 28.3359 15.9863C28.3086 15.9863 28.2812 15.9863 28.2539 15.9863C28.2539 15.9863 28.2402 15.9863 28.2129 15.9863C28.1582 15.9863 28.1035 15.9863 28.0488 15.9863C28.0215 15.9863 27.9941 16 27.9668 16.0273C27.9668 16.0273 27.9531 16.0273 27.9258 16.0273C27.8984 16.0273 27.8574 16.0273 27.8027 16.0273C27.7754 16.0273 27.748 16.0273 27.7207 16.0273C27.7207 16.0273 27.707 16.0273 27.6797 16.0273C27.6797 16.0273 27.666 16.0273 27.6387 16.0273C27.6113 16.0273 27.584 16.0273 27.5566 16.0273C27.5293 16.0273 27.502 16.0273 27.4746 16.0273C27.4473 16.0273 27.4199 16.041 27.3926 16.0684C27.3926 16.0684 27.3789 16.0684 27.3516 16.0684C27.3242 16.0684 27.2969 16.0684 27.2695 16.0684C27.2695 16.0684 27.2559 16.0684 27.2285 16.0684C27.2012 16.0684 27.1738 16.0684 27.1465 16.0684C27.1465 16.0684 27.1328 16.0684 27.1055 16.0684C27.0781 16.0957 27.0508 16.1094 27.0234 16.1094C27.0234 16.1094 27.0098 16.1094 26.9824 16.1094C26.9551 16.1094 26.9141 16.1094 26.8594 16.1094C26.832 16.1094 26.8047 16.123 26.7773 16.1504C26.7773 16.1504 26.7637 16.1504 26.7363 16.1504C26.7363 16.1504 26.7227 16.1504 26.6953 16.1504C26.668 16.1504 26.6406 16.1504 26.6133 16.1504C26.6133 16.1504 26.5996 16.1641 26.5723 16.1914C26.5723 16.1914 26.5586 16.1914 26.5312 16.1914C26.4766 16.1914 26.4219 16.2051 26.3672 16.2324C26.3125 16.2324 26.2715 16.2324 26.2441 16.2324C26.2168 16.2324 26.2031 16.2324 26.2031 16.2324C25.0273 16.5059 23.9473 16.957 22.9629 17.5859C21.9512 18.2148 21.0762 18.9805 20.3379 19.8828C19.5996 20.7852 19.0254 21.7969 18.6152 22.918C18.2051 24.0391 18 25.2285 18 26.4863V33.5C18 34.457 17.6582 35.2773 16.9746 35.9609C16.291 36.6445 15.4707 36.9863 14.5137 36.9863C14.0215 36.9863 13.5977 37.1641 13.2422 37.5195C12.9141 37.8477 12.75 38.2578 12.75 38.75C12.75 39.2422 12.9141 39.666 13.2422 40.0215C13.5977 40.3496 14.0215 40.5137 14.5137 40.5137H42.4863C42.9785 40.5137 43.3887 40.3496 43.7168 40.0215C44.0723 39.666 44.25 39.2422 44.25 38.75C44.25 38.2578 44.0723 37.8477 43.7168 37.5195C43.3887 37.1641 42.9785 36.9863 42.4863 36.9863ZM14.5137 38.75C15.1973 38.75 15.8535 38.627 16.4824 38.3809C17.1387 38.1074 17.7129 37.7246 18.2051 37.2324C18.6973 36.7129 19.0801 36.1387 19.3535 35.5098C19.627 34.8809 19.7637 34.2109 19.7637 33.5V26.4863C19.7637 25.3379 19.9824 24.2305 20.4199 23.1641C20.8574 22.0977 21.4863 21.1543 22.3066 20.334C23.127 19.4863 24.0703 18.8438 25.1367 18.4062C26.2031 17.9688 27.3242 17.75 28.5 17.75C29.6758 17.75 30.7969 17.9688 31.8633 18.4062C32.9297 18.8438 33.873 19.4863 34.6934 20.334C35.5137 21.1543 36.1426 22.0977 36.5801 23.1641C37.0176 24.2305 37.2363 25.3379 37.2363 26.4863V33.5C37.2363 34.2109 37.373 34.8809 37.6465 35.5098C37.9199 36.1387 38.3027 36.7129 38.7949 37.2324C39.2871 37.7246 39.8477 38.1074 40.4766 38.3809C41.1055 38.627 41.7754 38.75 42.4863 38.75H14.5137ZM25.0547 14.7559C25.0273 14.6738 25.0137 14.5918 25.0137 14.5098C25.0137 14.4277 25.0137 14.3457 25.0137 14.2637C25.0137 13.2793 25.3555 12.4453 26.0391 11.7617C26.7227 11.0781 27.543 10.7363 28.5 10.7363C29.457 10.7363 30.2773 11.0781 30.9609 11.7617C31.6445 12.4453 31.9863 13.2793 31.9863 14.2637C31.9863 14.3457 31.9863 14.4277 31.9863 14.5098C31.9863 14.5918 31.9727 14.6738 31.9453 14.7559C31.6719 14.6738 31.3848 14.6055 31.084 14.5508C30.8105 14.4688 30.5371 14.4141 30.2637 14.3867C30.2637 14.3594 30.2637 14.332 30.2637 14.3047C30.2637 14.2773 30.2637 14.2637 30.2637 14.2637C30.2637 13.7715 30.0859 13.3613 29.7305 13.0332C29.4023 12.6777 28.9922 12.5 28.5 12.5C28.0078 12.5 27.584 12.6777 27.2285 13.0332C26.9004 13.3613 26.7363 13.7715 26.7363 14.2637C26.7363 14.291 26.7363 14.3184 26.7363 14.3457C26.7363 14.3457 26.7363 14.3594 26.7363 14.3867C26.4629 14.4141 26.1758 14.4688 25.875 14.5508C25.6016 14.6055 25.3281 14.6738 25.0547 14.7559ZM31.5352 42.2363H33.4629C33.0801 43.2754 32.4375 44.123 31.5352 44.7793C30.6602 45.4355 29.6484 45.7637 28.5 45.7637C27.3516 45.7637 26.3262 45.4355 25.4238 44.7793C24.5215 44.123 23.8926 43.2754 23.5371 42.2363H25.4648C25.7656 42.7559 26.1758 43.1797 26.6953 43.5078C27.2422 43.8359 27.8438 44 28.5 44C29.1289 44 29.7168 43.8359 30.2637 43.5078C30.8105 43.1797 31.2344 42.7559 31.5352 42.2363Z" fill="#56504C"/>
</svg>

<svg width="57" height="57" fill="none" xmlns="http://www.w3.org/2000/svg"><path d="M42.486 36.986c-.957 0-1.777-.341-2.46-1.025C39.341 35.277 39 34.457 39 33.5v-7.014c0-1.258-.205-2.447-.615-3.568a10.397 10.397 0 00-1.723-3.035 10.584 10.584 0 00-2.625-2.297 10.307 10.307 0 00-3.24-1.354h-.205c-.027-.027-.069-.04-.123-.04h-.041c-.028-.028-.055-.042-.082-.042h-.123a.314.314 0 00-.123-.04h-.164l-.041-.042h-.329c0-.027-.013-.04-.04-.04h-.492a.316.316 0 00-.124-.042h-.861c-.027 0-.055.014-.082.041h-.492c-.028 0-.055.014-.082.041h-.287c-.028.028-.055.041-.083.041h-.164c-.027 0-.054.014-.082.041h-.164l-.04.041h-.042a.365.365 0 00-.164.041h-.163a10.307 10.307 0 00-3.241 1.354 10.584 10.584 0 00-2.625 2.297 10.397 10.397 0 00-1.723 3.035A10.305 10.305 0 0018 26.486V33.5c0 .957-.342 1.777-1.025 2.46-.684.684-1.504 1.026-2.461 1.026-.492 0-.916.178-1.272.534-.328.328-.492.738-.492 1.23s.164.916.492 1.272c.356.328.78.492 1.272.492h27.972c.492 0 .903-.164 1.23-.492.356-.356.534-.78.534-1.272s-.178-.902-.533-1.23a1.605 1.605 0 00-1.23-.534zM14.514 38.75c.683 0 1.34-.123 1.968-.37a5.285 5.285 0 001.723-1.148 5.93 5.93 0 001.149-1.722c.273-.63.41-1.3.41-2.01v-7.014c0-1.148.218-2.256.656-3.322a8.56 8.56 0 011.887-2.83 8.276 8.276 0 012.83-1.928 8.777 8.777 0 013.363-.656c1.176 0 2.297.219 3.363.656a8.276 8.276 0 012.83 1.928 8.56 8.56 0 011.887 2.83 8.672 8.672 0 01.656 3.322V33.5c0 .71.137 1.38.41 2.01a5.93 5.93 0 001.149 1.722 5.413 5.413 0 001.682 1.149 5.465 5.465 0 002.01.369H14.513zm10.54-23.994a.773.773 0 01-.04-.246v-.246c0-.985.341-1.819 1.025-2.502.684-.684 1.504-1.026 2.461-1.026.957 0 1.777.342 2.46 1.026.684.683 1.026 1.517 1.026 2.502v.246a.773.773 0 01-.04.246 7.922 7.922 0 00-.862-.205 4.368 4.368 0 00-.82-.164v-.123c0-.492-.178-.903-.534-1.23a1.605 1.605 0 00-1.23-.534c-.492 0-.916.178-1.271.533-.329.328-.493.739-.493 1.23v.123c-.273.028-.56.083-.861.165a8.97 8.97 0 00-.82.205zm6.481 27.48h1.928a5.381 5.381 0 01-1.928 2.543c-.875.656-1.887.985-3.035.985-1.148 0-2.174-.329-3.076-.985a5.134 5.134 0 01-1.887-2.543h1.928c.3.52.71.944 1.23 1.272A3.443 3.443 0 0028.5 44a3.37 3.37 0 001.764-.492c.547-.328.97-.752 1.271-1.272z" fill="#56504C"/></svg>
